X:1
T: I'se the B'y that Builds the Boat
C:
R:Jig
Q:180
K:G
M:6/8
L:1/16
B4B2 B4B2|A4F2 D6|B4B2 B4B2|c6d6|B4B2 B4B2|A2A2F2 D4D2|D4F2 A4F2|G2z4D6|
B4B2 B4B2|A4F2 D6|B4B2 B4B2|c4c2d6|B4B2 B2B2B2|A4F2 D4D2|D4F2 A4F2|G2z4D6|
K:C
e4e2 e4e2|d4B2 G6|e4e2 e4e2|f6g6|e4e2 e4e2|d2d2B2 G4G2|G4B2 d4B2|c2z4G6|
e4e2 e4e2|d4B2 G6|e4e2 e4e2|f4f2g6|e4e2 e2e2e2|d4B2 G4G2|G4B2 d4B2|c2z4G6||
